svg/u1f9d5_1f3fc.svg

<svg viewBox="0 0 128 128" xmlns="http://www.w3.org/2000/svg">
  <linearGradient id="shirt_1_" gradientTransform="matrix(1 0 0 -1 0 128)" gradientUnits="userSpaceOnUse" x1="64.005" x2="64.005" y1="33.6212" y2="-35.8928">
    <stop offset="0" stop-color="#616161"/>
    <stop offset="0.7823" stop-color="#323232"/>
    <stop offset="1" stop-color="#212121"/>
  </linearGradient>
  <path id="shirt" d="M64.13,94.45H64c-25.65,0.03-51.46,7.55-51.46,25.44v4.07h1.5h1.5h96.93h1.49h1.51 v-4.07C115.46,103.02,89.9,94.45,64.13,94.45z" fill="url(#shirt_1_)"/>
  <g id="face">
    <path id="head" d="M63.82,94.45c-2.38,0-5.07-0.52-7.81-1.48c-11.72-4.14-25.39-16.89-25.39-39.16 c0-29.68,17.89-40.21,33.21-40.21s33.21,10.53,33.21,40.21c0,22.3-13.7,35.03-25.43,39.17C68.86,93.94,66.18,94.45,63.82,94.45z" fill="#E0BB95"/>
    <g id="eyes">
      <ellipse cx="47.72" cy="58.87" fill="#5D4037" rx="4.87" ry="5.04"/>
      <ellipse cx="80.58" cy="58.87" fill="#5D4037" rx="4.87" ry="5.04"/>
    </g>
    <path id="nose" d="M67.96,68.05c-0.1-0.04-0.21-0.07-0.32-0.08h-6.99c-0.11,0.01-0.21,0.04-0.32,0.08 c-0.63,0.26-0.98,0.91-0.68,1.61s1.69,2.66,4.49,2.66c2.8,0,4.19-1.96,4.49-2.66C68.94,68.97,68.59,68.31,67.96,68.05z" fill="#C48E6A"/>
    <g id="eyebrows">
      <path d="M55.78,49.82c-0.93-1.23-3.07-3.01-7.23-3.01s-6.31,1.79-7.23,3.01c-0.41,0.54-0.31,1.17-0.02,1.55 c0.26,0.35,1.04,0.68,1.9,0.39s2.54-1.16,5.35-1.18c2.81,0.02,4.49,0.89,5.35,1.18s1.64-0.03,1.9-0.39 C56.09,50.99,56.19,50.36,55.78,49.82z" fill="#AB872F"/>
      <path d="M87.92,49.82c-0.93-1.23-3.07-3.01-7.23-3.01s-6.31,1.79-7.23,3.01c-0.41,0.54-0.31,1.17-0.02,1.55 c0.26,0.35,1.04,0.68,1.9,0.39s2.54-1.16,5.35-1.18c2.81,0.02,4.49,0.89,5.35,1.18s1.64-0.03,1.9-0.39 C88.22,50.99,88.33,50.36,87.92,49.82z" fill="#AB872F"/>
    </g>
    <path id="mouth" d="M72.05,76.14c-3.15,1.87-13.46,1.87-16.61,0c-1.81-1.07-3.65,0.57-2.9,2.21 c0.74,1.61,6.37,5.36,11.23,5.36c4.87,0,10.42-3.75,11.16-5.36C75.68,76.71,73.86,75.06,72.05,76.14z" fill="#6D4C41"/>
  </g>
  <g id="headscarf">
    <linearGradient id="SVGID_1_" gradientTransform="matrix(1 0 0 1 0 2)" gradientUnits="userSpaceOnUse" x1="64.3699" x2="64.3699" y1="116.53" y2="19.398">
      <stop offset="0.0174" stop-color="#792D96"/>
      <stop offset="0.533" stop-color="#842AA6"/>
      <stop offset="1" stop-color="#8A29B0"/>
    </linearGradient>
    <path d="M24.5,108.51c0.96,7.03,5.72,12.21,13.67,15.45h43.06c29.16-15.63,24.38-71.5,23.99-76.45 C103.36,23.55,92.06,4.01,64.03,4C35.99,4.01,23,23.68,23,47.17c0,21.99,4.06,37.42,10.97,47.5 C27.59,97.47,23.75,103.01,24.5,108.51z M64.03,36.69c0,0,25.76,12.63,29.89,31.25c0,0-8.89,24.4-29.89,24.4 s-29.89-24.4-29.89-24.4C37.69,49.2,64.03,36.69,64.03,36.69z" fill="url(#SVGID_1_)"/>
    <path d="M32.85,98.13c0,0,0.47,12.25,14.16,18.94c17.53,8.57,33.59,0.78,40.69-7.18 c9.93-11.14,9.35-30.83,9.35-30.83s-1.34,19.51-15.75,29.63c-10.11,7.1-22.17,8.03-32.99,3.75 C34.82,107.11,32.85,98.13,32.85,98.13z" fill="#541E69"/>
    <path d="M46.77,100.28c-12.6-4.18-21.23-26.71-21.23-26.71s4.52,32.34,29.65,36.64 c31.49,5.38,46.15-27.46,48.76-39.72c6.4-35.65-8.89-52.95-8.89-52.95s14.16,29.28,3.6,54.96 C92.66,87.12,80.05,111.33,46.77,100.28z" fill="#48145C"/>
    <path d="M65.59,16.43c0,0-14.25-4.43-27.25,9.57c-12.47,13.43-8.58,39.09-8.58,39.09 s-0.14-21.42,14.58-35.42C57.21,17.42,65.59,16.43,65.59,16.43z" fill="#A23DC9"/>
    <path d="M88.23,38.05c9.86,13.59,9.05,31.86,9.05,31.86s5.17-20.84-4.83-34.76 c-7.88-10.97-20.64-11.41-20.64-11.41S78.96,25.27,88.23,38.05z" fill="#541E69"/>
    <path d="M43.83,87.6c16.09,12.82,34.91,6.88,34.91,6.88s-20.9,11.66-38.14-3.77 c-10.08-9.02-10.45-24.07-10.45-24.07S34.03,79.78,43.83,87.6z" fill="#541E69"/>
  </g>
</svg>

<svg viewBox="0 0 128 128" xmlns="http://www.w3.org/2000/svg">
  <defs>
    <linearGradient id="shirt_1_" gradientTransform="matrix(1 0 0 -1 0 0)" gradientUnits="userSpaceOnUse" x1="64.005" x2="64.005" y1="-94.3788" y2="-163.8928">
      <stop offset="0" stop-color="#616161"/>
      <stop offset="0.7823" stop-color="#323232"/>
      <stop offset="1" stop-color="#212121"/>
    </linearGradient>
    <linearGradient id="SVGID_1_" gradientUnits="userSpaceOnUse" x1="64.3699" x2="64.3699" y1="118.53" y2="21.398">
      <stop offset="0.0174" stop-color="#792D96"/>
      <stop offset="0.533" stop-color="#842AA6"/>
      <stop offset="1" stop-color="#8A29B0"/>
    </linearGradient>
  </defs>
  <path id="shirt" d="M64.13,94.45 L64,94.45 C38.35,94.48 12.54,102 12.54,119.89 L12.54,123.96 L14.04,123.96 L15.54,123.96 L112.47,123.96 L113.96,123.96 L115.47,123.96 L115.47,119.89 C115.46,103.02 89.9,94.45 64.13,94.45 Z" fill="url(#shirt_1_)"/>
  <path id="head" d="M63.82,94.45 C61.44,94.45 58.75,93.93 56.01,92.97 C44.29,88.83 30.62,76.08 30.62,53.81 C30.62,24.13 48.51,13.6 63.83,13.6 C79.15,13.6 97.04,24.13 97.04,53.81 C97.04,76.11 83.34,88.84 71.61,92.98 C68.86,93.94 66.18,94.45 63.82,94.45 Z" fill="#E0BB95"/>
  <path d="M52.59,58.87 A4.87 5.04 0 1 1 42.85,58.87 A4.87 5.04 0 1 1 52.59,58.87 Z" fill="#5D4037"/>
  <path d="M85.45,58.87 A4.87 5.04 0 1 1 75.71,58.87 A4.87 5.04 0 1 1 85.45,58.87 Z" fill="#5D4037"/>
  <path id="nose" d="M67.96,68.05 C67.86,68.01 67.75,67.98 67.64,67.97 L60.65,67.97 C60.54,67.98 60.44,68.01 60.33,68.05 C59.7,68.31 59.35,68.96 59.65,69.66 C59.95,70.36 61.34,72.32 64.14,72.32 C66.94,72.32 68.33,70.36 68.63,69.66 C68.94,68.97 68.59,68.31 67.96,68.05 Z" fill="#C48E6A"/>
  <path d="M55.78,49.82 C54.85,48.59 52.71,46.81 48.55,46.81 C44.39,46.81 42.24,48.6 41.32,49.82 C40.91,50.36 41.01,50.99 41.3,51.37 C41.56,51.72 42.34,52.05 43.2,51.76 C44.06,51.47 45.74,50.6 48.55,50.58 C51.36,50.6 53.04,51.47 53.9,51.76 C54.76,52.05 55.54,51.73 55.8,51.37 C56.09,50.99 56.19,50.36 55.78,49.82 Z" fill="#AB872F"/>
  <path d="M87.92,49.82 C86.99,48.59 84.85,46.81 80.69,46.81 C76.53,46.81 74.38,48.6 73.46,49.82 C73.05,50.36 73.15,50.99 73.44,51.37 C73.7,51.72 74.48,52.05 75.34,51.76 C76.2,51.47 77.88,50.6 80.69,50.58 C83.5,50.6 85.18,51.47 86.04,51.76 C86.9,52.05 87.68,51.73 87.94,51.37 C88.22,50.99 88.33,50.36 87.92,49.82 Z" fill="#AB872F"/>
  <path id="mouth" d="M72.05,76.14 C68.9,78.01 58.59,78.01 55.44,76.14 C53.63,75.07 51.79,76.71 52.54,78.35 C53.28,79.96 58.91,83.71 63.77,83.71 C68.64,83.71 74.19,79.96 74.93,78.35 C75.68,76.71 73.86,75.06 72.05,76.14 Z" fill="#6D4C41"/>
  <path d="M24.5,108.51 C25.46,115.54 30.22,120.72 38.17,123.96 L81.23,123.96 C110.39,108.33 105.61,52.46 105.22,47.51 C103.36,23.55 92.06,4.01 64.03,4 C35.99,4.01 23,23.68 23,47.17 C23,69.16 27.06,84.59 33.97,94.67 C27.59,97.47 23.75,103.01 24.5,108.51 Z M64.03,36.69 C64.03,36.69 89.79,49.32 93.92,67.94 C93.92,67.94 85.03,92.34 64.03,92.34 C43.03,92.34 34.14,67.94 34.14,67.94 C37.69,49.2 64.03,36.69 64.03,36.69 Z" fill="url(#SVGID_1_)"/>
  <path d="M32.85,98.13 C32.85,98.13 33.32,110.38 47.01,117.07 C64.54,125.64 80.6,117.85 87.7,109.89 C97.63,98.75 97.05,79.06 97.05,79.06 C97.05,79.06 95.71,98.57 81.3,108.69 C71.19,115.79 59.13,116.72 48.31,112.44 C34.82,107.11 32.85,98.13 32.85,98.13 Z" fill="#541E69"/>
  <path d="M46.77,100.28 C34.17,96.1 25.54,73.57 25.54,73.57 C25.54,73.57 30.06,105.91 55.19,110.21 C86.68,115.59 101.34,82.75 103.95,70.49 C110.35,34.84 95.06,17.54 95.06,17.54 C95.06,17.54 109.22,46.82 98.66,72.5 C92.66,87.12 80.05,111.33 46.77,100.28 Z" fill="#48145C"/>
  <path d="M65.59,16.43 C65.59,16.43 51.34,12 38.34,26 C25.87,39.43 29.76,65.09 29.76,65.09 C29.76,65.09 29.62,43.67 44.34,29.67 C57.21,17.42 65.59,16.43 65.59,16.43 Z" fill="#A23DC9"/>
  <path d="M88.23,38.05 C98.09,51.64 97.28,69.91 97.28,69.91 C97.28,69.91 102.45,49.07 92.45,35.15 C84.57,24.18 71.81,23.74 71.81,23.74 C71.81,23.74 78.96,25.27 88.23,38.05 Z" fill="#541E69"/>
  <path d="M43.83,87.6 C59.92,100.42 78.74,94.48 78.74,94.48 C78.74,94.48 57.84,106.14 40.6,90.71 C30.52,81.69 30.15,66.64 30.15,66.64 C30.15,66.64 34.03,79.78 43.83,87.6 Z" fill="#541E69"/>
</svg>
